public/icons/slider-bullet-active-light.svg

<svg width="29" height="25" viewBox="0 0 29 25" fill="none" xmlns="http://www.w3.org/2000/svg">
<g clip-path="url(#clip0_4672_936)">
<path d="M21.0209 23.8616L19.6452 24.4907C19.4006 24.6105 19.2172 24.5506 19.0949 24.311C19.0949 24.311 19.0949 24.281 19.0949 24.2211L17.8109 24.5806C17.5052 24.7004 17.3217 24.6405 17.2606 24.4008C17.1994 24.281 17.1994 24.1612 17.2606 24.0413L15.7932 24.5806C15.5486 24.7004 15.3957 24.6405 15.3346 24.4008C15.2123 24.1612 15.3957 23.9215 15.8849 23.6818C15.8237 23.6818 15.7015 23.7118 15.518 23.7717L14.0506 24.311C13.806 24.4308 13.6532 24.4008 13.592 24.2211L12.8583 24.4907C12.6137 24.6105 12.4303 24.5506 12.308 24.311C12.2469 24.1911 12.1246 24.1612 11.9412 24.2211L10.2903 24.7603C10.0458 24.8802 9.89289 24.8203 9.83175 24.5806C9.77061 24.4608 9.77061 24.3409 9.83175 24.2211L9.00632 24.4008C8.76175 24.5207 8.57833 24.4308 8.45604 24.1312C8.45604 24.0713 8.45604 23.9814 8.45604 23.8616L6.80519 24.2211C6.6829 24.281 6.53004 24.251 6.34662 24.1312L4.9709 24.4907C4.84862 24.5506 4.75691 24.5506 4.69576 24.4907L3.32005 24.9401C3.07548 25.0599 2.89205 25 2.76977 24.7603C2.76977 24.6405 2.76977 24.5207 2.76977 24.4008C2.76977 24.4008 2.73919 24.3709 2.67805 24.311C2.55577 24.0713 2.61691 23.8916 2.86148 23.7717L4.42062 23.0527C4.48176 23.0527 4.51233 23.0527 4.51233 23.0527L6.07147 22.6932L6.8969 22.4236C6.77461 22.2439 6.71347 22.124 6.71347 22.0641C6.65233 22.0641 6.62176 22.0641 6.62176 22.0641L5.97976 22.2439L4.60405 22.7831L3.13662 23.2325L1.76091 23.6818C1.51634 23.8017 1.33291 23.7418 1.21063 23.5021C1.08834 23.2025 1.18005 23.0228 1.48577 22.9629L2.86148 22.4236C2.92262 22.4236 2.95319 22.4236 2.95319 22.4236L4.32891 22.0641L5.70462 21.5249L6.34662 21.3451C6.28547 21.1654 6.19376 21.0156 6.07147 20.8957C6.01033 20.7759 5.85747 20.686 5.6129 20.6261L4.14548 21.3451L2.76977 22.0641C2.70862 22.0641 2.67805 22.0641 2.67805 22.0641L1.21063 22.4236C0.904913 22.5434 0.721484 22.4536 0.660342 22.154C0.599199 21.9143 0.690913 21.7645 0.935484 21.7046L2.40291 21.2552L3.77862 20.6261L5.79633 19.6375C5.79633 19.3379 5.79633 19.0084 5.79633 18.6489L5.33776 18.8286C5.33776 18.8286 5.30719 18.8286 5.24605 18.8286L3.87034 19.278L2.40291 19.9071L0.752056 20.5363C0.507485 20.6561 0.324056 20.5662 0.201771 20.2666C0.140628 20.027 0.232342 19.8772 0.476913 19.8173L2.03605 19.1881L3.50348 18.559C3.50348 18.4991 3.53405 18.4691 3.59519 18.4691L5.06262 18.1096L5.79633 17.7502C5.79633 17.7502 5.79633 17.7202 5.79633 17.6603C5.85747 17.2409 5.88804 16.9413 5.88804 16.7615L5.24605 16.9413L3.68691 17.5704C3.68691 17.6303 3.68691 17.6303 3.68691 17.5704L2.3112 18.0198L0.84377 18.7388C0.599199 18.8586 0.415771 18.7987 0.293485 18.559C0.1712 18.3194 0.232342 18.1396 0.476913 18.0198L1.94434 17.3008C2.00548 17.3008 2.03605 17.3008 2.03605 17.3008L3.41176 16.8514L4.9709 16.1324C4.9709 16.1324 5.00148 16.1324 5.06262 16.1324L5.88804 15.9527C5.88804 15.5932 5.76576 15.3835 5.52119 15.3235L3.96205 16.0425L2.49462 16.7615L1.11891 17.3008C0.874341 17.4206 0.690913 17.3607 0.568627 17.121C0.446342 16.8814 0.507485 16.7016 0.752056 16.5818L2.12777 15.9527L3.59519 15.3235L5.15433 14.6046L5.79633 14.3349C5.79633 14.0354 5.79633 13.7358 5.79633 13.4362L5.33776 13.6159L3.68691 14.2451L0.568627 15.5033C0.324056 15.6231 0.140628 15.5632 0.0183428 15.3235C-0.0427999 15.024 0.0489142 14.8442 0.293485 14.7843L1.76091 14.1552L3.41176 13.4362L4.9709 12.8969L5.79633 12.5374C5.79633 12.118 5.79633 11.8185 5.79633 11.6387L4.05376 12.0881L2.58634 12.6273L1.0272 13.1666C0.782627 13.2265 0.599199 13.1366 0.476913 12.8969C0.415771 12.6573 0.507485 12.4775 0.752056 12.3577L2.40291 11.9083L3.77862 11.3691L5.24605 10.9197L5.79633 10.74C5.79633 10.4404 5.70462 10.2307 5.52119 10.1108L3.87034 10.74L2.58634 11.459C2.52519 11.459 2.49462 11.459 2.49462 11.459L1.0272 11.8185C0.721484 11.9383 0.538056 11.8484 0.476913 11.5488C0.415771 11.3092 0.507485 11.1594 0.752056 11.0995L2.21948 10.6501L3.50348 10.021C3.50348 10.021 3.53405 10.021 3.59519 10.021L5.15433 9.39185L5.70462 9.12223C5.70462 8.76273 5.67405 8.52307 5.6129 8.40324C5.55176 8.40324 5.52119 8.40324 5.52119 8.40324L4.05376 8.94248L2.67805 9.30198L1.11891 9.9311C0.874341 10.0509 0.690913 9.96105 0.568627 9.66147C0.507485 9.42181 0.599199 9.27202 0.84377 9.2121L2.40291 8.58298C2.40291 8.58298 2.43348 8.58298 2.49462 8.58298L3.77862 8.13361L5.70462 7.50449C5.70462 7.02517 5.55176 6.72558 5.24605 6.60575L3.87034 7.05512L2.3112 7.59437L0.84377 8.31336C0.599199 8.43319 0.415771 8.37328 0.293485 8.13361C0.1712 7.89395 0.232342 7.7142 0.476913 7.59437L1.94434 6.87538C2.00548 6.87538 2.03605 6.87538 2.03605 6.87538L3.59519 6.33613L5.06262 5.79688L5.6129 5.61714C5.6129 5.31756 5.55176 5.10785 5.42947 4.98802C5.36833 5.04793 5.33776 5.07789 5.33776 5.07789L3.77862 5.43739L2.40291 6.06651C2.40291 6.06651 2.37234 6.06651 2.3112 6.06651L0.84377 6.426C0.538056 6.54584 0.354628 6.45596 0.293485 6.15638C0.232342 5.91672 0.324056 5.76693 0.568627 5.70701L2.03605 5.25764L3.50348 4.71839C3.50348 4.65848 3.50348 4.62852 3.50348 4.62852L5.06262 4.26902L5.6129 3.9994C5.67405 3.87957 5.70462 3.72978 5.70462 3.55003L4.9709 3.81965L3.68691 4.17915C3.62576 4.23907 3.44234 4.23907 3.13662 4.17915L1.76091 4.71839C1.51634 4.83823 1.33291 4.77831 1.21063 4.53865C1.14948 4.23907 1.2412 4.05932 1.48577 3.9994L2.76977 3.46016L4.23719 2.83104C4.23719 2.83104 4.26776 2.80108 4.32891 2.74116L6.07147 2.29179C6.2549 1.93229 6.49947 1.60276 6.80519 1.30318C7.47776 0.524266 8.27261 0.104853 9.18975 0.0449372C10.168 -0.0149791 11.1463 -0.0149791 12.1246 0.0449372C12.5526 0.0449372 12.8889 0.0449372 13.1335 0.0449372C14.8455 0.104853 16.5575 0.194727 18.2694 0.314559C19.9814 0.434391 21.6934 0.494308 23.4054 0.494308C23.5277 0.494308 23.7112 0.494308 23.9557 0.494308C24.6894 0.434391 25.3926 0.46435 26.0651 0.584182C26.7377 0.644098 27.3491 0.943679 27.8994 1.48292C28.5109 2.08208 28.8471 2.74116 28.9083 3.46016C28.9694 4.11923 29 4.80827 29 5.52726C29 5.70701 28.9694 5.82684 28.9083 5.88676C28.9083 6.7855 28.8777 7.65428 28.8166 8.49311C28.7554 9.33193 28.6943 10.2007 28.6331 11.0995C28.6331 12.2379 28.6331 13.3763 28.6331 14.5147C28.6943 15.6531 28.7554 16.7915 28.8166 17.9299C28.8166 17.9898 28.8166 18.1396 28.8166 18.3793C28.8777 19.0983 28.8777 19.8173 28.8166 20.5363C28.7554 21.1953 28.4191 21.8544 27.8077 22.5135C27.1963 23.1726 26.432 23.5321 25.5149 23.592C24.6589 23.7118 23.8029 23.7717 22.9469 23.7717C22.7023 23.7118 22.4883 23.6818 22.3049 23.6818C22.1214 23.6818 21.938 23.6818 21.7546 23.6818C21.5712 23.6818 21.3266 23.7418 21.0209 23.8616ZM23.3137 21.6147C23.436 21.6147 23.5277 21.6147 23.5889 21.6147C24.078 21.6747 24.5672 21.6747 25.0563 21.6147C25.5454 21.4949 25.9429 21.2852 26.2486 20.9856C26.5543 20.686 26.7071 20.3265 26.7071 19.9071C26.7071 19.4278 26.6766 18.9784 26.6154 18.559C26.6154 18.3194 26.6154 18.1396 26.6154 18.0198C26.5543 16.8215 26.4931 15.6531 26.432 14.5147C26.432 13.3164 26.432 12.148 26.432 11.0096C26.4931 10.1108 26.5543 9.24206 26.6154 8.40324C26.6766 7.56441 26.7377 6.69563 26.7989 5.79688C26.7989 5.67705 26.7989 5.52726 26.7989 5.34751C26.86 4.9281 26.86 4.50869 26.7989 4.08928C26.7989 3.66986 26.6766 3.31037 26.432 3.01078C26.1263 2.77112 25.7594 2.65129 25.3314 2.65129C24.9034 2.59137 24.4754 2.56141 24.0474 2.56141C23.7417 2.62133 23.5277 2.65129 23.4054 2.65129C21.6323 2.65129 19.8897 2.59137 18.1777 2.47154C16.4657 2.35171 14.7537 2.26183 13.0417 2.20192C12.8583 2.20192 12.5526 2.17196 12.1246 2.11204C11.452 2.11204 10.7489 2.11204 10.0152 2.11204C9.34261 2.11204 8.79233 2.32175 8.36433 2.74116C7.99747 3.16058 7.78347 3.72978 7.72233 4.44877C7.72233 5.10785 7.7529 5.76693 7.81404 6.426C7.87518 6.96525 7.90576 7.3547 7.90576 7.59437C7.90576 9.03236 7.93633 10.5003 7.99747 11.9982C8.05861 13.4362 8.08918 14.9041 8.08918 16.402C8.08918 16.5818 8.08918 16.7615 8.08918 16.9413C8.08918 17.121 8.05861 17.3307 7.99747 17.5704C7.99747 17.9299 7.99747 18.2894 7.99747 18.6489C7.99747 19.0084 8.02804 19.3679 8.08918 19.7274C8.15033 19.967 8.21147 20.2067 8.27261 20.4464C8.3949 20.6261 8.51718 20.8059 8.63947 20.9856L9.4649 21.3451C11.4826 21.465 13.5003 21.5548 15.518 21.6147C17.5969 21.6147 19.6757 21.5848 21.7546 21.5249C21.938 21.5249 22.2743 21.5548 22.7634 21.6147C23.008 21.6147 23.1914 21.6147 23.3137 21.6147Z" fill="white"/>
<path d="M7 22V2H27V22H7Z" fill="white"/>
</g>
<defs>
<clipPath id="clip0_4672_936">
<rect width="29" height="25" fill="white"/>
</clipPath>
</defs>
</svg>

<svg width="29" height="25" fill="none" xmlns="http://www.w3.org/2000/svg"><g clip-path="url(#a)" fill="#fff"><path d="m21.02 23.862-1.375.629c-.244.12-.428.06-.55-.18v-.09l-1.284.36c-.306.12-.49.06-.55-.18a.375.375 0 0 1 0-.36l-1.468.54c-.244.12-.397.06-.458-.18-.123-.24.06-.48.55-.72-.061 0-.184.03-.367.09l-1.467.54c-.245.12-.398.09-.459-.09l-.734.27c-.244.12-.428.06-.55-.18-.061-.12-.183-.15-.367-.09l-1.65.54c-.245.12-.398.06-.46-.18a.375.375 0 0 1 0-.36l-.825.18c-.244.12-.428.03-.55-.27v-.27l-1.65.36c-.123.06-.276.03-.46-.09l-1.375.36c-.122.06-.214.06-.275 0l-1.376.45c-.245.119-.428.059-.55-.18v-.36l-.092-.09c-.122-.24-.061-.42.183-.54l1.56-.718h.091l1.56-.36.825-.27c-.122-.18-.184-.299-.184-.359h-.091l-.642.18-1.376.54-1.467.449-1.376.449c-.245.12-.428.06-.55-.18-.123-.3-.031-.48.275-.54l1.375-.538h.092l1.376-.36 1.376-.54.642-.179a1.125 1.125 0 0 0-.276-.45c-.06-.12-.214-.209-.458-.269l-1.468.72-1.375.718h-.092l-1.467.36c-.306.12-.49.03-.55-.27-.062-.24.03-.39.274-.45l1.468-.449 1.376-.629 2.017-.989v-.988l-.458.18h-.092l-1.376.449-1.467.63-1.65.628c-.246.12-.429.03-.551-.27-.061-.239.03-.389.275-.449l1.559-.629 1.467-.629c0-.06.031-.09.092-.09l1.468-.36.733-.359v-.09c.061-.42.092-.719.092-.898l-.642.18-1.56.628c0 .06 0 .06 0 0l-1.375.45-1.467.719c-.245.12-.428.06-.55-.18-.123-.24-.062-.42.183-.54l1.467-.718h.092l1.376-.45 1.559-.719h.092l.825-.18c0-.359-.122-.569-.367-.629l-1.559.72-1.467.719-1.376.539c-.245.12-.428.06-.55-.18-.123-.24-.062-.42.183-.54l1.376-.628 1.467-.63 1.56-.718.641-.27v-.899l-.458.18-1.651.63-3.118 1.257c-.245.12-.428.06-.55-.18-.062-.299.03-.479.274-.539l1.468-.629 1.65-.719 1.56-.54.825-.359v-.898l-1.742.45-1.468.538-1.559.54c-.244.06-.428-.03-.55-.27-.061-.24.03-.42.275-.54l1.65-.449 1.377-.539 1.467-.45.55-.179c0-.3-.091-.51-.275-.63l-1.65.63-1.285.719h-.091l-1.468.36c-.306.12-.489.03-.55-.27-.061-.24.03-.39.275-.45l1.467-.449 1.284-.629h.092l1.56-.63.55-.269c0-.36-.03-.599-.092-.719H5.52l-1.467.54-1.376.359-1.56.63c-.244.119-.427.029-.55-.27-.06-.24.031-.39.276-.45l1.559-.629h.092l1.284-.45 1.926-.629c0-.479-.153-.778-.459-.898l-1.376.45-1.559.538-1.467.72c-.245.12-.428.06-.55-.18-.123-.24-.062-.42.183-.54l1.467-.719h.092l1.56-.539 1.467-.54.55-.179c0-.3-.061-.51-.184-.629l-.091.09-1.56.36-1.375.629H2.31l-1.467.359c-.306.12-.49.03-.55-.27-.062-.24.03-.39.275-.449l1.467-.45 1.467-.539v-.09l1.56-.359.55-.27a.983.983 0 0 0 .092-.449l-.734.27-1.284.36c-.061.06-.245.06-.55 0l-1.376.538c-.245.12-.428.06-.55-.18-.062-.299.03-.479.275-.539L2.77 3.46l1.467-.629.092-.09 1.742-.45c.184-.359.428-.688.734-.988C7.478.524 8.273.105 9.19.045c.978-.06 1.956-.06 2.935 0h1.008c1.713.06 3.425.15 5.136.27 1.712.12 3.424.18 5.136.18h.55a8.187 8.187 0 0 1 2.11.09c.673.06 1.284.359 1.834.898.612.6.948 1.258 1.01 1.977.06.66.091 1.348.091 2.067 0 .18-.03.3-.092.36 0 .899-.03 1.767-.091 2.606-.062.839-.123 1.708-.184 2.607v3.415l.184 3.415v.45c.06.718.06 1.437 0 2.156-.062.66-.398 1.318-1.01 1.977-.61.66-1.375 1.02-2.292 1.079-.856.12-1.712.18-2.568.18a2.748 2.748 0 0 0-.642-.09h-.55c-.184 0-.428.06-.734.18Zm2.294-2.247h.275c.489.06.978.06 1.467 0 .49-.12.887-.33 1.193-.63.305-.299.458-.659.458-1.078 0-.48-.03-.929-.092-1.348v-.54a1311.79 1311.79 0 0 0-.183-3.504V11.01c.061-.9.122-1.768.183-2.607.062-.839.123-1.707.184-2.606v-.45c.061-.419.061-.838 0-1.258 0-.42-.122-.779-.367-1.078-.306-.24-.673-.36-1.1-.36a9.25 9.25 0 0 0-1.285-.09c-.305.06-.52.09-.642.09-1.773 0-3.515-.06-5.227-.18-1.712-.12-3.424-.21-5.136-.27-.184 0-.49-.029-.917-.089h-2.11c-.672 0-1.223.21-1.65.63-.368.419-.582.988-.643 1.707 0 .659.03 1.318.092 1.977.061.54.092.929.092 1.168 0 1.438.03 2.906.091 4.404.062 1.438.092 2.906.092 4.404v.54c0 .179-.03.389-.092.628v1.079c0 .36.031.719.092 1.078l.184.72.366.539.826.36c2.018.119 4.035.209 6.053.269 2.079 0 4.158-.03 6.237-.09.183 0 .52.03 1.008.09h.55Z"/><path d="M7 22V2h20v20H7Z"/></g><defs><clipPath id="a"><path fill="#fff" d="M0 0h29v25H0z"/></clipPath></defs></svg>
